assets/Fearful face/Flat/fearful_face_flat.svg

<svg width="32" height="32" viewBox="0 0 32 32" fill="none" xmlns="http://www.w3.org/2000/svg">
<path d="M29.9978 15.9989C29.9978 23.7303 25.3333 29.9978 15.9989 29.9978C6.66443 29.9978 2 23.7303 2 15.9989C2 15.3202 2.03594 14.6528 2.10783 14L15.9989 8L29.8899 14C29.9618 14.6528 29.9978 15.3202 29.9978 15.9989Z" fill="#FFB02E"/>
<path d="M29.89 14C29.143 7.21549 24.514 2 15.999 2C7.48389 2 2.85495 7.21549 2.10791 14H29.89Z" fill="#5092FF"/>
<path d="M10.5 18C12.9853 18 15 15.9853 15 13.5C15 11.0147 12.9853 9 10.5 9C8.01472 9 6 11.0147 6 13.5C6 15.9853 8.01472 18 10.5 18Z" fill="white"/>
<path d="M21.5 18C23.9853 18 26 15.9853 26 13.5C26 11.0147 23.9853 9 21.5 9C19.0147 9 17 11.0147 17 13.5C17 15.9853 19.0147 18 21.5 18Z" fill="white"/>
<path d="M8.95171 7.19972C9.49215 6.72506 9.82675 6.07318 10.0174 5.36929C10.0896 5.10275 10.3642 4.9452 10.6307 5.01739C10.8973 5.08958 11.0548 5.36417 10.9826 5.63071C10.7577 6.46121 10.3423 7.30933 9.61161 7.95107C8.87301 8.59978 7.85473 9 6.5 9C6.22386 9 6 8.77615 6 8.5C6 8.22386 6.22386 8 6.5 8C7.64527 8 8.4192 7.66742 8.95171 7.19972Z" fill="#402A32"/>
<path d="M23.0483 7.19972C22.5079 6.72506 22.1733 6.07318 21.9826 5.36929C21.9104 5.10275 21.6358 4.9452 21.3693 5.01739C21.1027 5.08958 20.9452 5.36417 21.0174 5.63071C21.2423 6.46121 21.6577 7.30933 22.3884 7.95107C23.127 8.59978 24.1453 9 25.5 9C25.7761 9 26 8.77615 26 8.5C26 8.22386 25.7761 8 25.5 8C24.3547 8 23.5808 7.66742 23.0483 7.19972Z" fill="#402A32"/>
<path d="M14 14C14 15.1046 13.1046 16 12 16C10.8954 16 10 15.1046 10 14C10 12.8954 10.8954 12 12 12C13.1046 12 14 12.8954 14 14Z" fill="#402A32"/>
<path d="M22 14C22 15.1046 21.1046 16 20 16C18.8954 16 18 15.1046 18 14C18 12.8954 18.8954 12 20 12C21.1046 12 22 12.8954 22 14Z" fill="#402A32"/>
<path d="M22.7179 24.0264C23.0288 25.0863 22.1033 26 20.9987 26C17.0451 26 14.6325 26 11.0008 26C9.8962 26 8.97119 25.0863 9.28207 24.0264C10.1341 21.1214 12.8193 19 16 19C19.1807 19 21.8659 21.1214 22.7179 24.0264Z" fill="#BB1D80"/>
</svg>

<svg xmlns="http://www.w3.org/2000/svg" width="32" height="32" fill="none"><path fill="#FFB02E" d="M29.998 15.999c0 7.731-4.665 13.999-14 13.999C6.665 29.998 2 23.73 2 15.998c0-.678.036-1.345.108-1.998l13.89-6 13.892 6c.072.653.108 1.32.108 1.999Z"/><path fill="#5092FF" d="M29.89 14c-.747-6.785-5.376-12-13.891-12S2.855 7.215 2.108 14H29.89Z"/><path fill="#fff" d="M10.5 18a4.5 4.5 0 1 0 0-9 4.5 4.5 0 0 0 0 9ZM21.5 18a4.5 4.5 0 1 0 0-9 4.5 4.5 0 0 0 0 9Z"/><path fill="#402A32" d="M8.952 7.2c.54-.475.875-1.127 1.065-1.83a.5.5 0 0 1 .966.26c-.225.831-.64 1.68-1.371 2.321C8.873 8.6 7.855 9 6.5 9a.5.5 0 1 1 0-1c1.145 0 1.92-.333 2.452-.8ZM23.048 7.2c-.54-.475-.875-1.127-1.065-1.83a.5.5 0 0 0-.966.26c.225.831.64 1.68 1.371 2.321C23.127 8.6 24.145 9 25.5 9a.5.5 0 0 0 0-1c-1.145 0-1.92-.333-2.452-.8ZM14 14a2 2 0 1 1-4 0 2 2 0 0 1 4 0ZM22 14a2 2 0 1 1-4 0 2 2 0 0 1 4 0Z"/><path fill="#BB1D80" d="M22.718 24.026c.31 1.06-.615 1.974-1.72 1.974h-9.997c-1.105 0-2.03-.914-1.719-1.974a7.003 7.003 0 0 1 13.436 0Z"/></svg>
